X: 14
T:Castle Jig, The
M:6/8
L:1/8
C:Sen Ryan
R:Double Jig
K:ADor
B[|:cBA BAG|AGE DB,G,|~A,3 EDB,|DEG AGE|!
c2A (3Bcd B|AGE DB,G,|~A,3 ECE|DB,G, A,2B:|!
|:cBA ~a3|bag edB|GBd ~g3|G,B,D GBG|!
cBc d^cd|ede gab|age dBG|EFG A3B:|]!
